X:36
T: Meg akartam házasodni
O: Lészped (Bákó), 1932
Q: 1/4=96
M:4/4
L:1/4
K:F
D<D d d | e c B/ A z/ | 
D<D d d | e c B/ A z/ | 
A>F D/E/F/G/  | A F E G | 
A/F/E/F/ G<E | D2 D/ z/ z | 

